src/assets/img/main/index/svg/info-icon-users.svg

<?xml version="1.0" encoding="UTF-8"?>
<svg width="auto" height="auto" viewBox="0 0 173 92" version="1.1" xmlns="http://www.w3.org/2000/svg" xmlns:xlink="http://www.w3.org/1999/xlink">
    <!-- Generator: Sketch 46.2 (44496) - http://www.bohemiancoding.com/sketch -->
    <title>Group 19</title>
    <desc>Created with Sketch.</desc>
    <defs>
        <path d="M12.96,3.43777922 C10.1704167,3.43777922 7.50875,2.90514286 5.07291667,1.94293506 C3.92291667,4.45594805 2.26,6.70123377 0.2125,8.55398701 C7.05375,10.6410519 20.8808333,16.1063117 20.8808333,26.1478961 L20.8808333,30.7906494 L44.58625,30.7906494 L44.58625,15.4673896 C44.58625,6.19355844 27.62625,1.23033766 24.1304167,0.306376623 C20.8925,2.28675325 17.0633333,3.43777922 12.96,3.43777922 Z" id="path-1"></path>
        <path d="M0.0748536585,10.7889535 C5.9214878,14.3723837 9.83842683,20.8807558 9.83842683,28.2987209 C9.83842683,30.0662209 9.61628049,31.7816279 9.19895122,33.4184884 C11.2115488,34.2694767 13.4193293,34.7411628 15.7369756,34.7411628 C25.1250732,34.7411628 32.7347927,27.0236628 32.7347927,17.5020349 C32.7347927,7.98325581 25.1250732,0.265348837 15.7369756,0.265348837 C8.69670732,0.265348837 2.65609756,4.60453488 0.0748536585,10.7889535 Z" id="path-3"></path>
        <path d="M0.195140187,15.4673896 L0.195140187,30.7906494 L23.7919626,30.7906494 L23.7919626,26.1478961 C23.7919626,16.1063117 37.7474299,10.6410519 44.6534579,8.55398701 C42.6158411,6.72780519 40.9546262,4.51955844 39.7959813,2.04881818 C37.4135047,2.94298701 34.8249533,3.43777922 32.1173832,3.43777922 C27.9748598,3.43777922 24.109486,2.28675325 20.841729,0.306376623 C17.3111215,1.23154545 0.195140187,6.19396104 0.195140187,15.4673896 Z" id="path-5"></path>
        <path d="M0.050304878,17.5020349 C0.050304878,27.0236628 7.66123171,34.7411628 17.0501341,34.7411628 C19.259122,34.7411628 21.3670976,34.3093605 23.3032317,33.5324419 C22.8661829,31.8613953 22.6323659,30.1077326 22.6323659,28.2987209 C22.6323659,20.7757558 26.6607805,14.1900581 32.6442439,10.64 C30.0283902,4.53575581 24.0328537,0.265348837 17.0501341,0.265348837 C7.66123171,0.265348837 0.050304878,7.98325581 0.050304878,17.5020349 Z" id="path-7"></path>
        <path d="M0.383421053,15.9634048 C1.72457895,16.1605238 3.02331579,16.4855476 4.27188158,16.9186429 C7.90214474,9.77135714 15.2944211,5.2072619 23.3935789,5.2072619 C25.9653553,5.2072619 28.4327105,5.66180952 30.7197763,6.49197619 C27.559,2.75885714 22.8290526,0.38452381 17.5394737,0.38452381 C8.55355263,0.38452381 1.17881579,7.22945238 0.383421053,15.9634048 Z" id="path-9"></path>
        <path d="M0.304243902,10.1304 C6.22009756,13.636 10.1937805,20.0708 10.1937805,27.4144 C10.1937805,29.2528 9.94386585,31.034 9.47743902,32.7272 C11.4421463,33.518 13.5875488,33.9576 15.8367805,33.9576 C25.224878,33.9576 32.835,26.372 32.835,17.0136 C32.835,7.6576 25.224878,0.072 15.8367805,0.072 C8.90879268,0.072 2.95189024,4.2056 0.304243902,10.1304 Z" id="path-11"></path>
        <path d="M12.7648598,3.24815584 C10.0034579,3.24815584 7.36654206,2.73403896 4.94621495,1.80645455 C3.79135514,4.21237662 2.15831776,6.36466234 0.164859813,8.15179221 C7.07088785,10.2388571 21.0267757,15.7037143 21.0267757,25.7457013 L21.0267757,30.601026 L44.6866822,30.601026 L44.6866822,15.2777662 C44.6866822,6.00312987 27.5690187,1.04111688 24.0400935,0.116753247 C20.7723364,2.09672727 16.9069626,3.24815584 12.7648598,3.24815584 Z" id="path-13"></path>
        <path d="M0.1381875,9.24468085 C2.9002875,7.9212766 5.973,7.17659574 9.2123625,7.17659574 C17.4598875,7.17659574 24.943875,12.0097872 28.598625,19.5851064 C29.8868625,19.1004255 31.2312,18.7382979 32.6192625,18.512766 C32.6200875,18.4417021 32.6242125,18.3714894 32.6242125,18.3008511 C32.6242125,8.34723404 24.82425,0.277446809 15.20145,0.277446809 C8.770575,0.277446809 3.1581,3.88382979 0.1381875,9.24468085 Z" id="path-15"></path>
        <path d="M0.0386341463,17.0136 C0.0386341463,26.372 7.64835366,33.9576 17.0364512,33.9576 C19.393939,33.9576 21.6383415,33.4792 23.6795122,32.614 C23.2332073,30.9548 22.9937561,29.212 22.9937561,27.4144 C22.9937561,20.174 26.8567683,13.816 32.6361951,10.2788 C30.0223537,4.2744 24.0231951,0.072 17.0364512,0.072 C7.64835366,0.072 0.0386341463,7.6576 0.0386341463,17.0136 Z" id="path-17"></path>
        <path d="M0.17875,15.2777662 L0.17875,30.601026 L23.9479167,30.601026 L23.9479167,25.7457013 C23.9479167,15.7053247 37.7733333,10.2400649 44.6145833,8.15219481 C42.61,6.3388961 40.9729167,4.14997403 39.8258333,1.70057143 C37.35375,2.6965974 34.6454167,3.24815584 31.8054167,3.24815584 C27.7016667,3.24815584 23.8729167,2.09712987 20.6345833,0.116753247 C17.1383333,1.04111688 0.17875,6.00312987 0.17875,15.2777662 Z" id="path-19"></path>
        <path d="M0.415674419,17.0144 C0.415674419,26.3724 8.33274419,33.958 18.0983721,33.958 C27.8635814,33.958 35.7789767,26.3724 35.7789767,17.0144 C35.7789767,7.6584 27.8635814,0.0724 18.0983721,0.0724 C8.33274419,0.0724 0.415674419,7.6584 0.415674419,17.0144 Z" id="path-21"></path>
    </defs>
    <g id="Welcome" stroke="none" stroke-width="1" fill="none" fill-rule="evenodd">
        <g id="Search-Drop-Down-Menu" transform="translate(-764.000000, -638.000000)">
            <g id="Group-19" transform="translate(764.000000, 638.000000)">
                <g id="Group-3" transform="translate(128.000000, 35.000000)">
                    <mask id="mask-2" fill="white">
                        <use xlink:href="#path-1"></use>
                    </mask>
                    <g id="Clip-2"></g>
                    <polygon id="Fill-1" fill="#077280" mask="url(#mask-2)" points="-5.24083333 36.0598442 50.0395833 36.0598442 50.0395833 -4.96281818 -5.24083333 -4.96281818"></polygon>
                </g>
                <g id="Group-6" transform="translate(124.000000, 0.000000)">
                    <mask id="mask-4" fill="white">
                        <use xlink:href="#path-3"></use>
                    </mask>
                    <g id="Clip-5"></g>
                    <polygon id="Fill-4" fill="#077280" mask="url(#mask-4)" points="-5.19267073 40.0680814 38.0019146 40.0680814 38.0019146 -5.06116279 -5.19267073 -5.06116279"></polygon>
                </g>
                <g id="Group-9" transform="translate(0.000000, 35.000000)">
                    <mask id="mask-6" fill="white">
                        <use xlink:href="#path-5"></use>
                    </mask>
                    <g id="Clip-8"></g>
                    <polygon id="Fill-7" fill="#077280" mask="url(#mask-6)" points="-5.30915888 36.0598442 50.157757 36.0598442 50.157757 -4.96281818 -5.30915888 -4.96281818"></polygon>
                </g>
                <g id="Group-12" transform="translate(15.000000, 0.000000)">
                    <mask id="mask-8" fill="white">
                        <use xlink:href="#path-7"></use>
                    </mask>
                    <g id="Clip-11"></g>
                    <polygon id="Fill-10" fill="#077280" mask="url(#mask-8)" points="-5.21681707 40.0680814 37.9117683 40.0680814 37.9117683 -5.06116279 -5.21681707 -5.06116279"></polygon>
                </g>
                <g id="Group-15" transform="translate(88.000000, 2.000000)">
                    <mask id="mask-10" fill="white">
                        <use xlink:href="#path-9"></use>
                    </mask>
                    <g id="Clip-14"></g>
                    <polygon id="Fill-13" fill="#077280" mask="url(#mask-10)" points="-4.95469737 22.2161667 36.0583026 22.2161667 36.0583026 -4.91259524 -4.95469737 -4.91259524"></polygon>
                </g>
                <g id="Group-18" transform="translate(97.000000, 12.000000)">
                    <mask id="mask-12" fill="white">
                        <use xlink:href="#path-11"></use>
                    </mask>
                    <g id="Clip-17"></g>
                    <polygon id="Fill-16" fill="#077280" mask="url(#mask-12)" points="-4.96287805 39.1924 38.102122 39.1924 38.102122 -5.1632 -4.96287805 -5.1632"></polygon>
                </g>
                <g id="Group-21" transform="translate(100.000000, 47.000000)">
                    <mask id="mask-14" fill="white">
                        <use xlink:href="#path-13"></use>
                    </mask>
                    <g id="Clip-20"></g>
                    <polygon id="Fill-19" fill="#077280" mask="url(#mask-14)" points="-5.33901869 35.8702208 50.1914019 35.8702208 50.1914019 -5.15244156 -5.33901869 -5.15244156"></polygon>
                </g>
                <g id="Group-24" transform="translate(49.000000, 0.000000)">
                    <mask id="mask-16" fill="white">
                        <use xlink:href="#path-15"></use>
                    </mask>
                    <g id="Clip-23"></g>
                    <polygon id="Fill-22" fill="#077280" mask="url(#mask-16)" points="-5.2606125 25.1540426 9.77539062 25.1540426 38.023425 25.1540426 38.023425 -5.29191489 -5.2606125 -5.29191489"></polygon>
                </g>
                <g id="Group-27" transform="translate(41.000000, 12.000000)">
                    <mask id="mask-18" fill="white">
                        <use xlink:href="#path-17"></use>
                    </mask>
                    <g id="Clip-26"></g>
                    <polygon id="Fill-25" fill="#077280" mask="url(#mask-18)" points="-5.2284878 39.1924 37.9037195 39.1924 37.9037195 -5.1632 -5.2284878 -5.1632"></polygon>
                </g>
                <g id="Group-30" transform="translate(27.000000, 47.000000)">
                    <mask id="mask-20" fill="white">
                        <use xlink:href="#path-19"></use>
                    </mask>
                    <g id="Clip-29"></g>
                    <polygon id="Fill-28" fill="#077280" mask="url(#mask-20)" points="-5.27416667 35.8706234 50.0683333 35.8706234 50.0683333 -5.15244156 -5.27416667 -5.15244156"></polygon>
                </g>
                <path d="M97.3025618,59 C94.0264019,61.0138803 90.1520088,62.1843791 85.9997892,62.1843791 C81.8479912,62.1843791 77.9731765,61.0138803 74.6970166,59 C71.1573643,59.9408207 54,64.9871895 54,74.4175042 L54,90 L85.9997892,90 L118,90 L118,74.4175042 C118,64.9863707 100.840106,59.9400018 97.3025618,59 Z" id="Stroke-31" stroke="#22B6CD" stroke-width="3" fill="#22B6CD"></path>
                <g id="Group-36" transform="translate(69.000000, 22.000000)">
                    <mask id="mask-22" fill="white">
                        <use xlink:href="#path-21"></use>
                    </mask>
                    <g id="Clip-34"></g>
                    <polygon id="Stroke-33" stroke="#282F54" stroke-width="6" mask="url(#mask-22)" points="-5.06302326 39.1932 41.2576744 39.1932 41.2576744 -5.1628 -5.06302326 -5.1628"></polygon>
                    <polygon id="Stroke-35" stroke="#282F54" stroke-width="6" mask="url(#mask-22)" points="-905.860465 504.4 590.919907 504.4 590.919907 -701.7904 -905.860465 -701.7904"></polygon>
                </g>
                <path d="M86.0008878,55 C77.7159886,55 71,48.2844225 71,39.9992917 C71,31.7159316 77.7159886,25 86.0008878,25 C94.2850768,25 101,31.7159316 101,39.9992917 C101,48.2844225 94.2850768,55 86.0008878,55 Z" id="Stroke-37" stroke="#22B6CD" stroke-width="3" fill="#22B6CD"></path>
            </g>
        </g>
    </g>
</svg>

<svg xmlns="http://www.w3.org/2000/svg" xmlns:xlink="http://www.w3.org/1999/xlink" width="200" height="128" viewBox="0 0 200 128">
    <defs>
        <path id="a" d="M12.96 3.438c-2.79 0-5.451-.533-7.887-1.495a20.352 20.352 0 0 1-4.86 6.611c6.84 2.087 20.668 7.552 20.668 17.594v4.643h23.705V15.467c0-9.273-16.96-14.237-20.456-15.16a21.352 21.352 0 0 1-11.17 3.13z"/>
        <path id="c" d="M.075 10.789a20.512 20.512 0 0 1 9.763 17.51 20.7 20.7 0 0 1-.639 5.12 16.744 16.744 0 0 0 6.538 1.322c9.388 0 16.998-7.717 16.998-17.239 0-9.519-7.61-17.237-16.998-17.237-7.04 0-13.08 4.34-15.662 10.524z"/>
        <path id="e" d="M.195 15.467v15.324h23.597v-4.643c0-10.042 13.955-15.507 20.861-17.594a20.362 20.362 0 0 1-4.857-6.505 21.815 21.815 0 0 1-7.679 1.389A21.702 21.702 0 0 1 20.842.306C17.312 1.232.195 6.194.195 15.467z"/>
        <path id="g" d="M.05 17.502c0 9.522 7.611 17.24 17 17.24 2.21 0 4.317-.433 6.253-1.21a20.658 20.658 0 0 1-.67-5.233A20.51 20.51 0 0 1 32.643 10.64C30.028 4.536 24.033.265 17.05.265c-9.389 0-17 7.718-17 17.237z"/>
        <path id="i" d="M.383 15.963c1.342.198 2.64.523 3.889.956C7.902 9.77 15.294 5.207 23.394 5.207c2.571 0 5.039.455 7.326 1.285A17.224 17.224 0 0 0 17.54.385C8.553.385 1.178 7.229.382 15.963z"/>
        <path id="k" d="M.304 10.13c5.916 3.506 9.89 9.94 9.89 17.284 0 1.839-.25 3.62-.717 5.313 1.965.791 4.11 1.23 6.36 1.23 9.388 0 16.998-7.585 16.998-16.943 0-9.356-7.61-16.942-16.998-16.942A17.002 17.002 0 0 0 .304 10.13z"/>
        <path id="m" d="M12.765 3.248c-2.762 0-5.398-.514-7.819-1.442A20.386 20.386 0 0 1 .165 8.152c6.906 2.087 20.862 7.552 20.862 17.594V30.6h23.66V15.278C44.687 6.003 27.569 1.04 24.04.117a21.706 21.706 0 0 1-11.275 3.131z"/>
        <path id="o" d="M.138 9.245a20.935 20.935 0 0 1 9.074-2.068c8.248 0 15.732 4.833 19.387 12.408a20.954 20.954 0 0 1 4.02-1.072c.001-.071.005-.142.005-.212 0-9.954-7.8-18.024-17.423-18.024C8.771.277 3.158 3.884.138 9.245z"/>
        <path id="q" d="M.039 17.014c0 9.358 7.61 16.944 16.997 16.944a16.98 16.98 0 0 0 6.644-1.344 19.991 19.991 0 0 1-.686-5.2c0-7.24 3.863-13.598 9.642-17.135A17.003 17.003 0 0 0 17.036.072C7.648.072.04 7.658.04 17.014z"/>
        <path id="s" d="M.179 15.278V30.6h23.769v-4.855c0-10.04 13.825-15.506 20.667-17.594a20.355 20.355 0 0 1-4.79-6.451 21.42 21.42 0 0 1-8.02 1.547A21.354 21.354 0 0 1 20.635.117C17.138 1.04.179 6.003.179 15.277z"/>
        <path id="u" d="M.416 17.014c0 9.358 7.917 16.944 17.682 16.944 9.766 0 17.681-7.586 17.681-16.944 0-9.356-7.915-16.942-17.68-16.942C8.332.072.415 7.658.415 17.014z"/>
    </defs>
    <g fill="none" fill-rule="evenodd">
        <g transform="translate(146 54)">
            <mask id="b" fill="#fff">
                <use xlink:href="#a"/>
            </mask>
            <path fill="#077280" d="M-5.24 36.06h55.28V-4.963H-5.24z" mask="url(#b)"/>
        </g>
        <g transform="translate(142 19)">
            <mask id="d" fill="#fff">
                <use xlink:href="#c"/>
            </mask>
            <path fill="#077280" d="M-5.193 40.068h43.195v-45.13H-5.193z" mask="url(#d)"/>
        </g>
        <g transform="translate(18 54)">
            <mask id="f" fill="#fff">
                <use xlink:href="#e"/>
            </mask>
            <path fill="#077280" d="M-5.31 36.06h55.468V-4.963H-5.31z" mask="url(#f)"/>
        </g>
        <g transform="translate(33 19)">
            <mask id="h" fill="#fff">
                <use xlink:href="#g"/>
            </mask>
            <path fill="#077280" d="M-5.217 40.068h43.129v-45.13H-5.217z" mask="url(#h)"/>
        </g>
        <g transform="translate(106 21)">
            <mask id="j" fill="#fff">
                <use xlink:href="#i"/>
            </mask>
            <path fill="#077280" d="M-4.955 22.216h41.013V-4.913H-4.955z" mask="url(#j)"/>
        </g>
        <g transform="translate(115 31)">
            <mask id="l" fill="#fff">
                <use xlink:href="#k"/>
            </mask>
            <path fill="#077280" d="M-4.963 39.192h43.065V-5.163H-4.963z" mask="url(#l)"/>
        </g>
        <g transform="translate(118 66)">
            <mask id="n" fill="#fff">
                <use xlink:href="#m"/>
            </mask>
            <path fill="#077280" d="M-5.339 35.87h55.53V-5.152h-55.53z" mask="url(#n)"/>
        </g>
        <g transform="translate(67 19)">
            <mask id="p" fill="#fff">
                <use xlink:href="#o"/>
            </mask>
            <path fill="#077280" d="M-5.26 25.154h43.283V-5.292H-5.26z" mask="url(#p)"/>
        </g>
        <g transform="translate(59 31)">
            <mask id="r" fill="#fff">
                <use xlink:href="#q"/>
            </mask>
            <path fill="#077280" d="M-5.228 39.192h43.132V-5.163H-5.228z" mask="url(#r)"/>
        </g>
        <g transform="translate(45 66)">
            <mask id="t" fill="#fff">
                <use xlink:href="#s"/>
            </mask>
            <path fill="#077280" d="M-5.274 35.87h55.342V-5.151H-5.274z" mask="url(#t)"/>
        </g>
        <path fill="#22B6CD" stroke="#22B6CD" stroke-width="3" d="M115.303 78A21.524 21.524 0 0 1 104 81.184c-4.152 0-8.027-1.17-11.303-3.184C89.157 78.94 72 83.987 72 93.418V109h64V93.418c0-9.432-17.16-14.478-20.697-15.418z"/>
        <g transform="translate(87 41)">
            <mask id="v" fill="#fff">
                <use xlink:href="#u"/>
            </mask>
            <path stroke="#282F54" stroke-width="6" d="M-5.063 39.193h46.32V-5.163h-46.32z" mask="url(#v)"/>
            <path stroke="#282F54" stroke-width="6" d="M-905.86 504.4H590.92V-701.79H-905.86z" mask="url(#v)"/>
        </g>
        <path fill="#22B6CD" stroke="#22B6CD" stroke-width="3" d="M104 74c-8.284 0-15-6.716-15-15 0-8.284 6.716-15 15-15 8.285 0 15 6.716 15 15 0 8.284-6.715 15-15 15z"/>
    </g>
</svg>
